X:52
T:Luring II
T:(Sv. L. Sm. 164) 
R:Schottis
S:[[Personer/Luringen]] och [[Personer/Spel Bengten]]
O:Virestad, Småland
D:[[Grupper/Sågskära]] - Änglarnas språk
M:4/4
L:1/8
K:D
|:dd/2d/2 cA cc/2c/2 BA|F2 AA A/2c/2e/2c/2 d/2c/2B/2A/2|dd/2d/2 cA cc/2c/2 BA|F2 AA A/2c/2e/2c/2 d2:|
|:A=f/2e/2 =fg aa/2a/2 ge|c2 ec ed/2c/2 d/2c/2B/2A/2|A=f/2e/2 =fg aa/2a/2 ge|c2 ec ed/2c/2 d2:|
(:musicend:)

Här är en annan version, som man kan hitta i Svenska Låtar.

(:music:)
